assets/images/tab-icons/cyto.svg

<svg xmlns="http://www.w3.org/2000/svg" xml:space="preserve" style="fill-rule:evenodd;clip-rule:evenodd;stroke-linecap:square;stroke-miterlimit:5" viewBox="0 0 32 32"><path d="m167.192 180.751 2.401.026c.119.155.243.306.373.452l-.42.078-.363 1.164 1.207-.798.047.046.06.055-.036.007-.363 1.163 1-.66c.088.067.177.133.268.197l.018 1.308.7-.857.073.041.124.065.017 1.224.724-.884.022.009.164.062.773 2.295c-.298-.061-.591-.135-.879-.222l.231-1.196-1.08.898c-.328-.131-.648-.28-.958-.445l-.115-.113-.177-1.417-.632.976-.195-.136-.129-.094.627-.823-1.278.303c-.246-.215-.483-.442-.707-.68l-.096-.277.468-1.347-1.157.687c-.261-.352-.499-.722-.712-1.107Zm17.616 0c-.213.384-.45.753-.71 1.104l-.561-.407.223.841c-.345.416-.722.805-1.129 1.161l-1.045-.336.493.787c-.101.077-.204.152-.308.225l-.393-.745-.233 1.15c-.304.182-.618.348-.942.497l-.288-.029-1.024-.994.15 1.473c-.333.106-.675.195-1.022.266l.773-2.295c.257-.094.507-.202.752-.322l-.039.15.905.817-.204-1.331.139-.087.004-.003.874.788-.196-1.275.101-.082.019-.015.078-.021 1.303.579-.579-1.188.089-.023 1.303.578-.605-1.241 2.072-.022Zm-2.414.043.013-.017.028-.001-.041.018Zm-13.824-11.696.672 2.148-1.117-.115.828.831c-.047.086-.094.172-.139.26l-.971-.1.696.698c-.067.162-.128.327-.185.495l-1.083.235.883.466c-.023.094-.043.189-.062.285l-1.103.24.988.521-.018.201-.005.091-1.974 1.467c-.03-.31-.044-.622-.044-.938l.002-.211.173.233 1.203-.187-1.333-.785c.023-.245.055-.487.095-.727l.184-.402 1.269-.647-1.14-.267.076-.234.051-.143.973.308-.68-1.041c.177-.395.378-.776.602-1.143l1.405-.015-.895-.738c.203-.273.419-.535.649-.786Zm14.86 0-.722 2.31.085.129.028.045 1.363-.265-.896 1.109v.005l.038.08 1.259-.245-.896 1.109v.071l.012.04.033.109 1.3.143-1.023.663-.094-.053.021.108.011.067 1.486.164-1.023.662-.383-.214.012.128.005.091 1.974 1.467c.029-.305.044-.613.044-.924l-.007.033-1.473-.25 1.227-.725.163-.423c-.037-.276-.086-.549-.145-.818l-1.188-.604.972-.214c-.04-.125-.081-.25-.125-.374l-1.048.316.726-1.115c-.19-.417-.408-.819-.651-1.203l-1.161-.012.744-.598c-.209-.283-.431-.554-.668-.812Zm-7.5-3.279.07-.001c.123 0 .246.003.369.008l-.029.011-.128 1.213 1.151-1.139.169.024.104.017.692.573.241 1.124-.468.332-.166-1.034-.571.987-.137-.023-.168-.023-.154-.957-.519.897c-.128-.006-.256-.01-.386-.01l-.071.001-.552-1.071-.254 1.118-.149.017-.031.005-.595-1.156-.302 1.326-.029.007-2.004-1.424c.297-.129.602-.243.913-.343l-.005.006.423 1.144.477-1.392c.235-.052.473-.096.714-.131l.471.111.885 1.119.039-1.336Zm2.647.334.751.447-.434.818 1.093-.777c-.453-.196-.924-.36-1.41-.488Z" style="fill:#fff" transform="matrix(1.02836 .27484 -.27555 1.02571 -148.5873 -244.8858)"/><path d="m203.456 202.661-.197-.002c-4.757 0-8.619 3.862-8.619 8.618 0 4.757 3.862 8.619 8.619 8.619 4.461 0 8.135-3.397 8.574-7.743l.198.002c4.757 0 8.619-3.862 8.619-8.618 0-4.757-3.862-8.619-8.619-8.619-4.461 0-8.136 3.397-8.575 7.743Zm.984 2.612c.381.074.775-.033 1.067-.29.291-.257.446-.635.42-1.023-.01-.14-.015-.281-.015-.423 0-3.377 2.742-6.119 6.119-6.119s6.119 2.742 6.119 6.119-2.742 6.118-6.119 6.118c-.404 0-.799-.039-1.181-.114-.381-.074-.775.033-1.067.29-.291.257-.447.635-.42 1.023.01.14.015.281.015.423 0 3.377-2.742 6.119-6.119 6.119s-6.119-2.742-6.119-6.119 2.742-6.118 6.119-6.118c.404 0 .798.039 1.181.114Z" style="fill:#fff" transform="translate(-191.649106 -191.364735)"/><path d="M211.671 201.727c-1.192 0-2.159.967-2.159 2.158 0 1.192.967 2.159 2.159 2.159 1.191 0 2.159-.967 2.159-2.159 0-1.191-.968-2.158-2.159-2.158Zm0 3c-.464 0-.841-.377-.841-.842 0-.464.377-.841.841-.841.464 0 .841.377.841.841 0 .465-.377.842-.841.842Z" style="fill:#fff" transform="translate(-193.26808 -192.113036)"/><path d="M211.671 202.477c-.778 0-1.409.631-1.409 1.408 0 .778.631 1.409 1.409 1.409.777 0 1.409-.631 1.409-1.409 0-.777-.632-1.408-1.409-1.408Zm0 1.5c-.051 0-.091-.041-.091-.092 0-.05.04-.091.091-.091.05 0 .091.041.091.091 0 .051-.041.092-.091.092Z" style="fill:#fff" transform="translate(-198.21438 -186.30693)"/><path d="M211.671 202.114c-.978 0-1.771.794-1.771 1.771 0 .978.793 1.771 1.771 1.771.977 0 1.771-.793 1.771-1.771 0-.977-.794-1.771-1.771-1.771Zm0 2.225c-.251 0-.454-.203-.454-.454 0-.25.203-.453.454-.453.25 0 .454.203.454.453 0 .251-.204.454-.454.454Z" style="fill:#fff" transform="translate(-129.2483 -115.2328) scale(.67418)"/><path d="M201.137 211.803c.016-.015.031-.03.046-.047.065-.073.19-.241.374-.402.464-.406 1.179-.833 1.179-.833.387-.387.385-1.018-.005-1.408-.391-.391-1.022-.393-1.409-.006 0 0-.427.715-.833 1.179-.16.184-.328.309-.402.374-.02.018-.582.552-.042 1.138.292.316.796.306 1.098.004l-.006.001Z" style="fill:#fff" transform="matrix(.86752 -.50558 .4985 .8716 -256.2116 -68.2)"/><path d="M201.143 211.802s.347-.39.414-.448c.464-.406 1.179-.833 1.179-.833.387-.387.385-1.018-.005-1.408-.391-.391-1.022-.393-1.409-.006 0 0-.427.715-.833 1.179-.16.184-.328.309-.402.374-.359.322-.307.872-.042 1.138.305.304.796.306 1.098.004Z" style="fill:#fff" transform="matrix(-.4985 .8716 -.86752 -.50558 291.956 -49.34)"/><g><path d="m231.287 208.434-2.116-5.349" style="fill:none;stroke:#fff;stroke-width:1.85px" transform="matrix(.77932 .27892 -.28753 .75598 -80.967 -206.4519)"/></g><g transform="matrix(1.02662 .36743 -.37878 .99587 -119.1462 -276.9243)"><circle cx="229.291" cy="203.524" r="1.757" style="fill:#fff"/><path d="M229.291 201.767c.97 0 1.757.787 1.757 1.757 0 .969-.787 1.756-1.757 1.756-.969 0-1.757-.787-1.757-1.756 0-.97.788-1.757 1.757-1.757Zm.027 1.408c.187 0 .354.134.354.321 0 .217-.191.376-.408.376-.187 0-.354-.134-.354-.32 0-.217.191-.377.408-.377Z" style="fill:#fff"/></g></svg>

<?xml version="1.0" encoding="UTF-8" standalone="no"?>
<!DOCTYPE svg PUBLIC "-//W3C//DTD SVG 1.1//EN" "http://www.w3.org/Graphics/SVG/1.1/DTD/svg11.dtd">
<svg width="100%" height="100%" viewBox="0 0 32 32" version="1.1" xmlns="http://www.w3.org/2000/svg" xmlns:xlink="http://www.w3.org/1999/xlink" xml:space="preserve" xmlns:serif="http://www.serif.com/" style="fill-rule:evenodd;clip-rule:evenodd;stroke-linecap:round;stroke-linejoin:round;stroke-miterlimit:5;">
    <g transform="matrix(1,0,0,1,-192,-192)">
        <g id="unknown">
        </g>
        <g id="plumbing">
        </g>
        <g id="genetics">
        </g>
        <g id="surgery">
        </g>
        <g id="trauma">
        </g>
        <g id="wound">
        </g>
        <g id="power">
        </g>
        <g id="solar">
        </g>
        <g id="machines">
        </g>
        <g id="supermatter">
        </g>
        <g id="shield">
        </g>
        <g id="turbine">
        </g>
        <g id="tcomm">
        </g>
        <g id="atmos">
        </g>
        <g id="xeno">
        </g>
        <g id="nanites">
        </g>
        <g id="aimod">
        </g>
        <g id="tips">
        </g>
        <g id="races">
        </g>
        <g id="food">
        </g>
        <g id="hydro">
        </g>
        <g id="song">
        </g>
        <g id="crate">
        </g>
        <g id="space">
        </g>
        <g id="aux">
        </g>
        <g id="security">
        </g>
        <g id="law">
        </g>
        <g id="sop">
        </g>
        <g id="trial">
        </g>
        <g id="traitor">
        </g>
        <g id="revolutionary">
        </g>
        <g transform="matrix(1.02836,0.274837,-0.275549,1.02571,43.4127,-52.8858)">
            <g id="cult">
                <path d="M167.192,180.751L169.593,180.777C169.712,180.932 169.836,181.083 169.966,181.229L169.546,181.307L169.183,182.471L170.39,181.673L170.437,181.719L170.497,181.774L170.461,181.781L170.098,182.944L171.098,182.284C171.186,182.351 171.275,182.417 171.366,182.481L171.384,183.789L172.084,182.932L172.157,182.973L172.281,183.038L172.298,184.262L173.022,183.378L173.044,183.387L173.208,183.449L173.981,185.744C173.683,185.683 173.39,185.609 173.102,185.522L173.333,184.326L172.253,185.224C171.925,185.093 171.605,184.944 171.295,184.779L171.18,184.666L171.003,183.249L170.371,184.225L170.176,184.089L170.047,183.995L170.674,183.172L169.396,183.475C169.15,183.26 168.913,183.033 168.689,182.795L168.593,182.518L169.061,181.171L167.904,181.858C167.643,181.506 167.405,181.136 167.192,180.751ZM184.808,180.751C184.595,181.135 184.358,181.504 184.098,181.855L183.537,181.448L183.76,182.289C183.415,182.705 183.038,183.094 182.631,183.45L181.586,183.114L182.079,183.901C181.978,183.978 181.875,184.053 181.771,184.126L181.378,183.381L181.145,184.531C180.841,184.713 180.527,184.879 180.203,185.028L179.915,184.999L178.891,184.005L179.041,185.478C178.708,185.584 178.366,185.673 178.019,185.744L178.792,183.449C179.049,183.355 179.299,183.247 179.544,183.127L179.505,183.277L180.41,184.094L180.206,182.763L180.345,182.676L180.349,182.673L181.223,183.461L181.027,182.186L181.128,182.104L181.147,182.089L181.225,182.068L182.528,182.647L181.949,181.459L182.038,181.436L183.341,182.014L182.736,180.773L184.808,180.751ZM182.394,180.794L182.407,180.777L182.435,180.776L182.394,180.794ZM168.57,169.098L169.242,171.246L168.125,171.131L168.953,171.962C168.906,172.048 168.859,172.134 168.814,172.222L167.843,172.122L168.539,172.82C168.472,172.982 168.411,173.147 168.354,173.315L167.271,173.55L168.154,174.016C168.131,174.11 168.111,174.205 168.092,174.301L166.989,174.541L167.977,175.062L167.959,175.263L167.954,175.354L165.98,176.821C165.95,176.511 165.936,176.199 165.936,175.883L165.938,175.672L166.111,175.905L167.314,175.718L165.981,174.933C166.004,174.688 166.036,174.446 166.076,174.206L166.26,173.804L167.529,173.157L166.389,172.89L166.465,172.656L166.516,172.513L167.489,172.821L166.809,171.78C166.986,171.385 167.187,171.004 167.411,170.637L168.816,170.622L167.921,169.884C168.124,169.611 168.34,169.349 168.57,169.098ZM183.43,169.098L182.708,171.408L182.793,171.537L182.821,171.582L184.184,171.317L183.288,172.426L183.288,172.431L183.326,172.511L184.585,172.266L183.689,173.375L183.689,173.446L183.701,173.486L183.734,173.595L185.034,173.738L184.011,174.401L183.917,174.348L183.938,174.456L183.949,174.523L185.435,174.687L184.412,175.349L184.029,175.135L184.041,175.263L184.046,175.354L186.02,176.821C186.049,176.516 186.064,176.208 186.064,175.897L186.057,175.93L184.584,175.68L185.811,174.955L185.974,174.532C185.937,174.256 185.888,173.983 185.829,173.714L184.641,173.11L185.613,172.896C185.573,172.771 185.532,172.646 185.488,172.522L184.44,172.838L185.166,171.723C184.976,171.306 184.758,170.904 184.515,170.52L183.354,170.508L184.098,169.91C183.889,169.627 183.667,169.356 183.43,169.098ZM175.93,165.819L176,165.818C176.123,165.818 176.246,165.821 176.369,165.826L176.34,165.837L176.212,167.05L177.363,165.911L177.532,165.935L177.636,165.952L178.328,166.525L178.569,167.649L178.101,167.981L177.935,166.947L177.364,167.934L177.227,167.911L177.059,167.888L176.905,166.931L176.386,167.828C176.258,167.822 176.13,167.818 176,167.818L175.929,167.819L175.377,166.748L175.123,167.866L174.974,167.883L174.943,167.888L174.348,166.732L174.046,168.058L174.017,168.065L172.013,166.641C172.31,166.512 172.615,166.398 172.926,166.298L172.921,166.304L173.344,167.448L173.821,166.056C174.056,166.004 174.294,165.96 174.535,165.925L175.006,166.036L175.891,167.155L175.93,165.819ZM178.577,166.153L179.328,166.6L178.894,167.418L179.987,166.641C179.534,166.445 179.063,166.281 178.577,166.153Z" style="fill:white;"/>
            </g>
        </g>
        <g id="nukie">
        </g>
        <g id="malf">
        </g>
        <g id="access">
        </g>
        <g id="xmorph">
        </g>
        <g id="abductor">
        </g>
        <g id="families">
        </g>
        <g id="circuit">
        </g>
        <g id="cyto">
            <g transform="matrix(1,0,0,1,0.350894,0.635265)">
                <path d="M204.68,204.046C204.668,203.878 204.662,203.708 204.662,203.537C204.662,199.47 207.964,196.168 212.031,196.168C216.098,196.168 219.4,199.47 219.4,203.537C219.4,207.604 216.098,210.905 212.031,210.905C211.545,210.905 211.07,210.858 210.61,210.768C210.622,210.936 210.628,211.106 210.628,211.277C210.628,215.344 207.326,218.646 203.259,218.646C199.192,218.646 195.89,215.344 195.89,211.277C195.89,207.211 199.192,203.909 203.259,203.909C203.745,203.909 204.22,203.956 204.68,204.046Z" style="fill:none;stroke:white;stroke-width:2.5px;"/>
            </g>
            <g transform="matrix(1,0,0,1,-0.706654,-1.32947)">
                <circle cx="211.671" cy="203.885" r="0.659" style="fill:none;stroke:white;stroke-width:3px;"/>
            </g>
            <g transform="matrix(1,0,0,1,-5.8374,8.12779)">
                <circle cx="211.671" cy="203.885" r="0.659" style="fill:none;stroke:white;stroke-width:1.5px;"/>
            </g>
            <g transform="matrix(0.867521,-0.505582,0.498504,0.871608,-64.2116,123.8)">
                <path d="M201.137,211.803C201.153,211.788 201.168,211.773 201.183,211.756C201.248,211.683 201.373,211.515 201.557,211.354C202.021,210.948 202.736,210.521 202.736,210.521C203.123,210.134 203.121,209.503 202.731,209.113C202.34,208.722 201.709,208.72 201.322,209.107C201.322,209.107 200.895,209.822 200.489,210.286C200.329,210.47 200.161,210.595 200.087,210.66C200.067,210.678 200.051,210.703 200.045,210.696C199.491,210.094 200.207,211.922 200.207,211.922C199.739,211.002 199.741,211.494 200.045,211.798C200.35,212.102 200.841,212.104 201.143,211.802L201.137,211.803Z" style="fill:white;"/>
            </g>
            <g transform="matrix(-0.498504,0.871608,-0.867521,-0.505582,483.956,142.66)">
                <path d="M201.379,211.527C201.29,211.624 201.224,211.709 201.183,211.756C201.165,211.776 201.141,211.792 201.147,211.798C201.366,211.999 201.402,211.795 201.379,211.527C201.431,211.472 201.49,211.412 201.557,211.354C202.021,210.948 202.736,210.521 202.736,210.521C203.123,210.134 203.121,209.503 202.731,209.113C202.34,208.722 201.709,208.72 201.322,209.107C201.322,209.107 200.895,209.822 200.489,210.286C200.329,210.47 200.161,210.595 200.087,210.66C199.728,210.982 200.291,210.979 200.755,210.934C199.745,211.123 199.78,211.532 200.045,211.798C200.35,212.102 200.841,212.104 201.143,211.802L201.263,210.866C201.263,210.866 201.356,211.235 201.379,211.527Z" style="fill:white;"/>
            </g>
        </g>
    </g>
</svg>
